svg/white/pot.svg

<svg xmlns="http://www.w3.org/2000/svg" width="32" height="32" viewBox="0 0 32 32">
  <path fill="#FFF" fill-rule="evenodd" d="M16,32 C7.163444,32 0,24.836556 0,16 C0,7.163444 7.163444,0 16,0 C24.836556,0 32,7.163444 32,16 C32,24.836556 24.836556,32 16,32 Z M12.0325653,18.1807346 C12.1352564,18.1807346 12.2202177,18.1806884 12.3051791,18.1807346 C13.6599739,18.1814282 15.014816,18.1847574 16.369658,18.1819368 C17.412408,18.1797174 18.446033,18.0926038 19.4542689,17.8137386 C20.7249534,17.4622787 21.8639172,16.883371 22.6920653,15.850816 C23.8169398,14.448352 24.1883678,12.8400798 23.9131536,11.0892539 C23.73595,9.96204841 23.099473,9.14843338 22.0413099,8.67777032 C21.6729079,8.51390059 21.2701336,8.4084765 20.8722764,8.32640293 C19.7197434,8.08855139 18.5448472,8.02936593 17.3726459,8.01410718 C15.3648736,7.98793612 13.3564866,8.00735634 11.348336,8.00148404 C11.1635203,8.00097541 11.1331669,8.09752168 11.1052247,8.23910438 C10.8710019,9.42521785 10.6269923,10.6094818 10.3986322,11.7965663 C10.3617069,11.9884104 10.2863433,12.0454688 10.0911261,12.038718 C9.68211097,12.0246152 9.27210292,12.039874 8.86256767,12.0363136 C8.72318763,12.0350651 8.65562518,12.073212 8.62976328,12.2231177 C8.53676446,12.761844 8.42556301,13.2975648 8.32263548,13.8346728 C8.31450341,13.8770274 8.3172929,13.9213703 8.31341598,13.9944273 L9.99018436,13.9944273 C9.32236105,17.3301287 8.66096777,20.6336018 8,23.9349016 C8.05626264,23.9556627 8.0775857,23.9702279 8.09909789,23.9704591 C8.98114472,23.9804004 9.86319155,23.9870588 10.7451911,23.9999594 C10.8850439,24.0019939 10.9128443,23.9274572 10.933931,23.8181953 C11.1688629,22.6008245 11.4064425,21.3839623 11.6437385,20.1669615 C11.7716769,19.5112514 11.900419,18.8555875 12.0325653,18.1807346 Z M12.5882889,15.4416041 C12.6876231,14.942643 12.7814257,14.4711476 12.8780651,13.9857345 L16.9814551,13.9857345 C17.1059894,13.342555 17.2280651,12.7119063 17.3566654,12.0475033 L13.2665136,12.0475033 C13.3523733,11.6088836 13.43081,11.2079484 13.5106651,10.8000774 C13.5815844,10.7943438 13.634963,10.7861134 13.6882943,10.7862521 C15.1607206,10.7895813 16.6334305,10.779455 18.1054313,10.8053949 C18.6294775,10.8146426 19.157448,10.8822897 19.6736931,10.975738 C20.380522,11.1036803 20.7974329,11.5591309 20.9147334,12.2558084 C20.9991274,12.7570352 20.9355837,13.2405064 20.6857587,13.6891136 C20.124267,14.6973933 19.2445842,15.251702 18.0884106,15.3901405 C17.7846397,15.4265303 17.4763772,15.4394309 17.1700531,15.4404482 C15.7370107,15.4451645 14.3038264,15.441974 12.8707367,15.4416041 C12.7856809,15.4416041 12.700625,15.4416041 12.5882889,15.4416041 Z"/>
</svg>

<svg xmlns="http://www.w3.org/2000/svg" width="32" height="32"><path fill="#FFF" fill-rule="evenodd" d="M16 32C7.163 32 0 24.837 0 16S7.163 0 16 0s16 7.163 16 16-7.163 16-16 16zm-3.967-13.82h.272c1.355.001 2.71.005 4.065.002 1.042-.002 2.076-.09 3.084-.368 1.271-.352 2.41-.93 3.238-1.963 1.125-1.403 1.496-3.01 1.221-4.762-.177-1.127-.814-1.94-1.872-2.411a5.738 5.738 0 0 0-1.169-.352c-1.152-.237-2.327-.297-3.5-.312-2.007-.026-4.016-.007-6.024-.013-.184 0-.215.097-.243.238-.234 1.186-.478 2.37-.706 3.558-.037.191-.113.248-.308.242-.409-.014-.819 0-1.228-.003-.14 0-.207.037-.233.187-.093.539-.204 1.075-.307 1.612-.008.042-.006.086-.01.16H9.99L8 23.934c.056.02.078.035.1.035.881.01 1.763.017 2.645.03.14.002.168-.073.189-.182.235-1.217.472-2.434.71-3.651l.389-1.986zm.555-2.738l.29-1.456h4.103l.376-1.938h-4.09c.085-.44.164-.84.244-1.248.07-.006.124-.014.177-.014 1.473.004 2.945-.007 4.417.02.524.009 1.052.076 1.569.17.707.128 1.123.583 1.24 1.28.085.501.022.985-.228 1.433-.562 1.008-1.441 1.563-2.598 1.701-.303.037-.612.05-.918.05-1.433.005-2.866.002-4.3.002h-.282z"/></svg>
